X:144 
T:Merry Blacksmith (reel), The  
B:CRE3.094 (Gabha Meidhreach)
F:file ID: cre.3/144merry_b
S:SÃÂÃÂÃÂÃÂ©amus Ennis
N:I have shortened the source's 64 measures to 32 (without repeats). 
R:reel
Q:180
M:C
L:1/8
K:D
A|:dedA BAFG|A2FA BAFA|dcde fded|Bee^d egfe|
d2Ad BAFA|ABdA BAFA|DFAd fdec|dBAG FDDG|
FAAF BAFA|(3AcA FA BAFA|(3DFA de fded|Be~e2 (3Bcd ef|
d3A BAFA|ABdA BAFA|ABde (3fga ec|dBAG FDD||
% B part
g|faag fafe|dcdA BAFA|ABde fded|Bee^d e3f|
a3g f3e|dcdA BAFA|DFAd fdec|dBAG FDDg|
faag (3fga ec|dfec BAFA|~A2FA defd|Bee^d e2fg|
a3f g2fe|dfed BAFA|ABde (3fga ec|dBAG FDD2 |]

%%%

